docs/img/svgicons/topics/people.svg

<svg width="770" height="770" fill="none" xmlns="http://www.w3.org/2000/svg"><path d="M385 409.062v72.188m-48.125 24.064L385 476.439l48.125 28.875m-16.854-298.377c0 24.063 14.438 43.312 38.5 50.531 26.469 7.219 45.719 28.875 52.938 55.344H267.084c4.812-26.469 26.469-48.125 50.531-55.344 21.656-7.219 38.5-26.468 38.5-50.531" stroke="#731C00" stroke-width="48.125" stroke-miterlimit="10" stroke-linecap="round" stroke-linejoin="round"/><path d="M385 216.562c-26.469 0-48.125-21.656-48.125-48.124v-48.126c0-26.468 21.656-48.124 48.125-48.124s48.125 21.656 48.125 48.124v48.126c0 26.468-21.656 48.124-48.125 48.124zm223.771 375.375c0 24.062 14.438 43.312 38.5 50.531 26.469 7.219 45.719 28.875 52.938 55.344H459.584c4.812-26.469 26.469-48.125 50.531-55.344 21.656-7.219 38.5-26.469 38.5-50.531" stroke="#731C00" stroke-width="48.125" stroke-miterlimit="10" stroke-linecap="round" stroke-linejoin="round"/><path d="M577.5 601.562c-26.469 0-48.125-21.656-48.125-48.124v-48.126c0-26.468 21.656-48.124 48.125-48.124s48.125 21.656 48.125 48.124v48.126c0 26.468-21.656 48.124-48.125 48.124zm-353.719-9.625c0 24.062 14.438 43.312 38.5 50.531 26.469 7.219 45.719 28.875 52.938 55.344H72.188c4.812-26.469 26.468-48.125 50.531-55.344 21.656-7.219 38.5-26.469 38.5-50.531" stroke="#731C00" stroke-width="48.125" stroke-miterlimit="10" stroke-linecap="round" stroke-linejoin="round"/><path d="M192.5 601.562c-26.469 0-48.125-21.656-48.125-48.124v-48.126c0-26.468 21.656-48.124 48.125-48.124s48.125 21.656 48.125 48.124v48.126c0 26.468-21.656 48.124-48.125 48.124z" stroke="#731C00" stroke-width="48.125" stroke-miterlimit="10" stroke-linecap="round" stroke-linejoin="round"/></svg>

<svg width="770" height="770" viewBox="0 0 770 770" fill="none" xmlns="http://www.w3.org/2000/svg">
<path d="M385 409.062V481.25" stroke="#731C00" stroke-width="48.125" stroke-miterlimit="10" stroke-linecap="round" stroke-linejoin="round"/>
<path d="M336.875 505.314L385 476.439L433.125 505.314" stroke="#731C00" stroke-width="48.125" stroke-miterlimit="10" stroke-linecap="round" stroke-linejoin="round"/>
<path d="M416.271 206.937C416.271 231 430.709 250.249 454.771 257.468C481.24 264.687 500.49 286.343 507.709 312.812H267.084C271.896 286.343 293.553 264.687 317.615 257.468C339.271 250.249 356.115 231 356.115 206.937" stroke="#731C00" stroke-width="48.125" stroke-miterlimit="10" stroke-linecap="round" stroke-linejoin="round"/>
<path d="M385 216.562C358.531 216.562 336.875 194.906 336.875 168.438V120.312C336.875 93.8437 358.531 72.1875 385 72.1875C411.469 72.1875 433.125 93.8437 433.125 120.312V168.438C433.125 194.906 411.469 216.562 385 216.562Z" stroke="#731C00" stroke-width="48.125" stroke-miterlimit="10" stroke-linecap="round" stroke-linejoin="round"/>
<path d="M608.771 591.937C608.771 615.999 623.209 635.249 647.271 642.468C673.74 649.687 692.99 671.343 700.209 697.812H459.584C464.396 671.343 486.053 649.687 510.115 642.468C531.771 635.249 548.615 615.999 548.615 591.937" stroke="#731C00" stroke-width="48.125" stroke-miterlimit="10" stroke-linecap="round" stroke-linejoin="round"/>
<path d="M577.5 601.562C551.031 601.562 529.375 579.906 529.375 553.438V505.312C529.375 478.844 551.031 457.188 577.5 457.188C603.969 457.188 625.625 478.844 625.625 505.312V553.438C625.625 579.906 603.969 601.562 577.5 601.562Z" stroke="#731C00" stroke-width="48.125" stroke-miterlimit="10" stroke-linecap="round" stroke-linejoin="round"/>
<path d="M223.781 591.937C223.781 615.999 238.219 635.249 262.281 642.468C288.75 649.687 308 671.343 315.219 697.812H72.1875C77 671.343 98.6562 649.687 122.719 642.468C144.375 635.249 161.219 615.999 161.219 591.937" stroke="#731C00" stroke-width="48.125" stroke-miterlimit="10" stroke-linecap="round" stroke-linejoin="round"/>
<path d="M192.5 601.562C166.031 601.562 144.375 579.906 144.375 553.438V505.312C144.375 478.844 166.031 457.188 192.5 457.188C218.969 457.188 240.625 478.844 240.625 505.312V553.438C240.625 579.906 218.969 601.562 192.5 601.562Z" stroke="#731C00" stroke-width="48.125" stroke-miterlimit="10" stroke-linecap="round" stroke-linejoin="round"/>
</svg>
